src/assets/images/icons/social-instagram.svg

<svg clip-rule="evenodd" fill-rule="evenodd" stroke-linejoin="round" stroke-miterlimit="2" viewBox="0 0 38 38" xmlns="http://www.w3.org/2000/svg"><g fill="#fff" fill-rule="nonzero"><path d="m25.781 13.698a1.556 1.556 0 1 1 0-3.114 1.558 1.558 0 1 1 0 3.114m-6.922 11.964a6.547 6.547 0 0 1 -6.54-6.541 6.547 6.547 0 0 1 6.54-6.54 6.548 6.548 0 0 1 6.54 6.54 6.548 6.548 0 0 1 -6.54 6.541m5.193-17.321h-10.603a5.484 5.484 0 0 0 -5.479 5.479v10.603a5.484 5.484 0 0 0 5.479 5.479h10.603a5.485 5.485 0 0 0 5.479-5.479v-10.603a5.485 5.485 0 0 0 -5.479-5.479"/><path d="m18.859 14.931a4.196 4.196 0 0 0 -4.19 4.19 4.194 4.194 0 0 0 4.19 4.189c2.31 0 4.19-1.878 4.19-4.189 0-2.309-1.88-4.19-4.19-4.19"/><path d="m32.03 24.423c0 4.399-3.58 7.978-7.978 7.978h-10.604c-4.399 0-7.978-3.579-7.978-7.978v-10.603c0-4.4 3.579-7.978 7.978-7.978h10.604c4.398 0 7.978 3.578 7.978 7.978zm-4.339-24.422-17.882-.001c-5.394 0-9.809 4.415-9.809 9.81v17.881c0 5.396 4.415 9.81 9.809 9.81l17.882.001c5.395 0 9.809-4.415 9.809-9.811v-17.881c0-5.395-4.414-9.809-9.809-9.809"/></g></svg>

<svg viewBox="0 0 38 38" xmlns="http://www.w3.org/2000/svg" fill-rule="evenodd" clip-rule="evenodd" stroke-linejoin="round" stroke-miterlimit="2"><path d="M25.781 13.698a1.556 1.556 0 1 1 0-3.114 1.558 1.558 0 1 1 0 3.114m-6.922 11.964a6.547 6.547 0 0 1-6.54-6.541 6.547 6.547 0 0 1 6.54-6.54 6.548 6.548 0 0 1 6.54 6.54 6.548 6.548 0 0 1-6.54 6.541m5.193-17.321H13.449A5.484 5.484 0 0 0 7.97 13.82v10.603a5.484 5.484 0 0 0 5.479 5.479h10.603a5.485 5.485 0 0 0 5.479-5.479V13.82a5.485 5.485 0 0 0-5.479-5.479" fill="#fff" fill-rule="nonzero"/><path d="M18.859 14.931a4.196 4.196 0 0 0-4.19 4.19 4.194 4.194 0 0 0 4.19 4.189c2.31 0 4.19-1.878 4.19-4.189 0-2.309-1.88-4.19-4.19-4.19" fill="#fff" fill-rule="nonzero"/><path d="M32.03 24.423c0 4.399-3.58 7.978-7.978 7.978H13.448c-4.399 0-7.978-3.579-7.978-7.978V13.82c0-4.4 3.579-7.978 7.978-7.978h10.604c4.398 0 7.978 3.578 7.978 7.978v10.603zM27.691.001L9.809 0C4.415 0 0 4.415 0 9.81v17.881c0 5.396 4.415 9.81 9.809 9.81l17.882.001c5.395 0 9.809-4.415 9.809-9.811V9.81c0-5.395-4.414-9.809-9.809-9.809" fill="#fff" fill-rule="nonzero"/></svg>
